.files/icons/devices/SD-card.svg

<svg fill="none" height="48" viewBox="0 0 48 48" width="48" xmlns="http://www.w3.org/2000/svg"><path clip-rule="evenodd" d="m10 9c0-.55228.4477-1 1-1h20.75c.1574 0 .3056.0741.4.2l5.75 7.6667c.0649.0865.1.1918.1.3v22.8333c0 .5523-.4477 1-1 1h-26c-.5523 0-1-.4477-1-1zm8 3h-4v6h4zm2 0h4v6h-4zm10 0h-4v6h4z" fill="#000" fill-rule="evenodd"/></svg>

<svg width="48" height="48" viewBox="0 0 48 48" fill="none" xmlns="http://www.w3.org/2000/svg">
<path fill-rule="evenodd" clip-rule="evenodd" d="M10 9C10 8.44772 10.4477 8 11 8H31.75C31.9074 8 32.0556 8.0741 32.15 8.2L37.9 15.8667C37.9649 15.9532 38 16.0585 38 16.1667V39C38 39.5523 37.5523 40 37 40H11C10.4477 40 10 39.5523 10 39V9ZM18 12H14V18H18V12ZM20 12H24V18H20V12ZM30 12H26V18H30V12Z" fill="black"/>
</svg>
